dist/img/vk.svg

<svg width="24" height="14" viewBox="0 0 24 14" fill="none" xmlns="http://www.w3.org/2000/svg">
<path fill-rule="evenodd" clip-rule="evenodd" d="M13.1508 13.6689C13.1508 13.6689 13.5743 13.6229 13.7912 13.3954C13.9898 13.1869 13.9829 12.7935 13.9829 12.7935C13.9829 12.7935 13.9565 10.9565 14.8299 10.6853C15.6908 10.4185 16.796 12.4618 17.9691 13.2474C18.8551 13.8415 19.5277 13.7115 19.5277 13.7115L22.6622 13.6689C22.6622 13.6689 24.3012 13.5702 23.5242 12.3116C23.4599 12.2085 23.0708 11.3802 21.1942 9.6788C19.2281 7.89784 19.4921 8.18588 21.8588 5.10479C23.3004 3.22856 23.8766 2.0831 23.6964 1.59331C23.5253 1.12481 22.4648 1.24922 22.4648 1.24922L18.9366 1.27051C18.9366 1.27051 18.6749 1.23577 18.481 1.34897C18.2916 1.45993 18.1688 1.71884 18.1688 1.71884C18.1688 1.71884 17.611 3.17028 16.8661 4.40541C15.2948 7.01016 14.667 7.14802 14.4099 6.98662C13.8119 6.60891 13.9611 5.47129 13.9611 4.66319C13.9611 2.13802 14.3536 1.08558 13.1978 0.813226C12.8145 0.722441 12.5321 0.663038 11.5508 0.652951C10.2917 0.640622 9.2266 0.657434 8.62288 0.945481C8.22117 1.13714 7.91127 1.56529 8.10065 1.58994C8.33365 1.62021 8.86161 1.72892 9.14167 2.10103C9.50321 2.58186 9.49058 3.66007 9.49058 3.66007C9.49058 3.66007 9.69833 6.63245 9.00508 7.00119C8.52991 7.25449 7.87799 6.7378 6.47658 4.37402C5.75923 3.16356 5.21749 1.82531 5.21749 1.82531C5.21749 1.82531 5.11304 1.57537 4.92596 1.44088C4.69985 1.27836 4.38422 1.22792 4.38422 1.22792L1.03162 1.24922C1.03162 1.24922 0.52776 1.26267 0.342971 1.47674C0.178842 1.66616 0.330346 2.05956 0.330346 2.05956C0.330346 2.05956 2.95526 8.05699 5.92795 11.0798C8.65387 13.8504 11.7482 13.6689 11.7482 13.6689H13.1508Z" fill="white"/>
</svg>

<svg width="24" height="14" fill="none" xmlns="http://www.w3.org/2000/svg"><path fill-rule="evenodd" clip-rule="evenodd" d="M13.15 13.669s.424-.046.641-.274c.199-.208.192-.601.192-.601s-.027-1.838.847-2.109c.86-.267 1.966 1.777 3.14 2.562.885.595 1.558.464 1.558.464l3.134-.042s1.64-.099.862-1.357c-.064-.103-.453-.932-2.33-2.633-1.966-1.781-1.702-1.493.665-4.574 1.441-1.876 2.018-3.022 1.837-3.512-.17-.468-1.231-.344-1.231-.344l-3.528.022s-.262-.035-.456.078c-.19.11-.312.37-.312.37s-.558 1.451-1.303 2.686c-1.571 2.605-2.199 2.743-2.456 2.582-.598-.378-.449-1.516-.449-2.324 0-2.525.393-3.577-.763-3.85-.383-.09-.666-.15-1.647-.16-1.26-.012-2.324.004-2.928.292-.402.192-.712.62-.522.645.233.03.76.139 1.04.511.362.48.35 1.56.35 1.56S9.698 6.631 9.005 7c-.475.253-1.127-.263-2.528-2.627-.718-1.21-1.26-2.549-1.26-2.549s-.104-.25-.291-.384a1.465 1.465 0 00-.542-.213l-3.352.021s-.504.014-.689.228c-.164.19-.013.583-.013.583s2.625 5.997 5.598 9.02c2.726 2.77 5.82 2.589 5.82 2.589h1.403z" fill="#fff"/></svg>
